sources/design/Outline/F.svg

<svg:svg xmlns:cc="http://creativecommons.org/ns#" xmlns:dc="http://purl.org/dc/elements/1.1/" xmlns:inkscape="http://www.inkscape.org/namespaces/inkscape" xmlns:rdf="http://www.w3.org/1999/02/22-rdf-syntax-ns#" xmlns:sodipodi="http://sodipodi.sourceforge.net/DTD/sodipodi-0.dtd" xmlns:svg="http://www.w3.org/2000/svg" xml:space="preserve" width="1000" height="1000" version="1.1" style="clip-rule:evenodd;fill-rule:evenodd;image-rendering:optimizeQuality;shape-rendering:geometricPrecision;text-rendering:geometricPrecision" viewBox="0 0 1000 1000" id="svg10" sodipodi:docname="F.svg" inkscape:version="1.1.1 (3bf5ae0d25, 2021-09-20)"><svg:text text-anchor="middle" x="267.90649" y="0.98539943" id="top" inkscape:label="top" style="clip-rule:evenodd;fill-rule:evenodd;image-rendering:optimizeQuality;shape-rendering:geometricPrecision;text-rendering:geometricPrecision">✛</svg:text><svg:g id="path850"><svg:path style="color:#000000;clip-rule:nonzero;fill:#1a5fb4;fill-rule:nonzero;stroke-linecap:round;stroke-linejoin:round;-inkscape-stroke:none;paint-order:fill stroke markers;shape-rendering:auto" d="M 396.04102,-34.794922 C 362.86442,-34.566125 329.69846,-32.925779 296.6582,-29.873047 C 195.70835,-20.545852 96.032162,1.9953933 0.88867188,36.988281 C -22.545104,45.607004 -34.662894,68.001355 -29.640625,92.164062 L -10.003906,186.63672 C -7.6918936,197.76006999999998 0.5738073400000001,211.72823 15.433594,216.78516 C 22.83466,219.30381 30.123919,219.15066 36.650391,217.50195 C 42.030964,257.60537999999997 45.370201,297.97209 46.671875,338.40819999999997 C 37.604203,339.05540999999994 28.544679,339.82385 19.470703,340.37499999999994 C -5.248235699999999,341.87639999999993 -24.506445999999997,362.4138699999999 -24.214844,387.29101999999995 L -23.345703,461.46093999999994 C -23.204729,473.48768999999993 -17.466677,487.2394099999999 -6.185546900000002,495.21874999999994 C 5.095583099999997,503.1980899999999 19.734827999999997,504.0301799999999 31.066405999999997,500.32030999999995 C 34.447775,499.21327999999994 37.885155,498.2845899999999 41.279297,497.2167999999999 C 31.475408,593.98219 9.937026499999998,689.5839699999999 -22.847656,781.1230499999999 C -26.792284000000002,792.13695 -26.658958000000002,807.4352399999999 -17.945312,819.2480499999999 C -9.2316672,831.06085 5.5334523,835.7482299999999 17.287109,835.1230499999999 L 147.35742,828.20508 C 172.13536,826.88712 192.28534,802.09075 188.9082,777.7382799999999 C 185.04757999999998,749.8994299999999 182.24376999999998,721.91437 180.50585999999998,693.8632799999999 C 175.82575999999997,618.3232999999999 178.98208999999997,541.7502699999999 183.31641,464.39843999999994 C 235.74106999999998,456.59540999999996 288.82601999999997,453.2336899999999 341.78711,454.48632999999995 C 371.08668,455.17931999999996 400.35571999999996,457.26214999999996 429.45898,460.7246099999999 C 453.73124,463.6123399999999 478.75849,441.3347799999999 478.29296999999997,416.6406199999999 L 476.55078,324.2265599999999 C 476.31946,311.95587999999987 470.54872,299.0650799999999 460.34961,291.0820299999999 C 450.15049,283.0989799999999 436.33216999999996,280.6041699999999 424.39648,283.2675799999999 C 368.45937,295.7496999999999 312.10578,306.3656699999999 255.46094,315.08983999999987 C 233.99865,318.39535999999987 212.48651,321.3691699999999 190.94727,324.13085999999987 C 193.8006,264.13621999999987 195.82639,204.10310999999987 196.92773,144.05077999999986 C 260.1139,131.44560999999987 328.25968,133.35911999999985 394.55469,143.68554999999986 C 419.62628,147.59081999999987 444.53362,152.55791999999985 469.18555,158.57030999999986 C 492.97616,164.37263999999988 520.12018,146.10088999999988 523.30078,121.54687999999987 L 536.52734,19.439453 C 539.7239999999999,-5.238453100000001 520.52854,-29.281211 495.48242,-31.246094 C 462.40414,-33.841105 429.21761,-35.023719 396.04102,-34.794922 M 396.45508,25.203125 C 422.64791,25.02249 448.84402,25.825632 474.98242,27.5 L 466.05273,96.435547 C 445.42092,91.807006 424.68252,87.654858 403.78906,84.400391 C 336.86984,73.976731 266.12915,70.864008 197.78906,82.630859 C 197.79306,82.170542 197.80486000000002,81.710318 197.80856,81.25 C 197.9141,68.321636 192.98208,56.485817999999995 185.11911,47.169922 C 223.80741,39.363911 262.88639,33.503342 302.1777,29.873047 C 333.51587,26.977578 364.98059,25.420183 396.45505,25.203125 L 396.45508,25.203125 M 73.65625,88.0 L 137.70898,88.0 C 137.67988,91.112821 137.61198,94.225118 137.57811999999998,97.337891 C 118.26338,103.54712 99.330801,111.26219 80.892578,120.57617 C 78.628256,109.68423 76.208883,98.828584 73.65625,88.0 M 136.57617,161.3125 C 135.36729,217.94716 133.31179,274.56149 130.52929999999998,331.14062 C 122.54519999999998,331.97333000000003 114.54816999999997,332.67162 106.55663999999997,333.42969 C 104.80768999999998,282.90065 100.06528999999998,232.48469999999998 92.26171899999997,182.53710999999998 C 95.82986999999997,180.46921999999998 99.41555399999997,178.42999999999998 103.06249999999997,176.50780999999998 C 113.92670999999997,170.78162999999998 125.11845999999997,165.74164 136.57616999999996,161.31249999999997 L 136.57617,161.3125 M 416.95312,346.22461 L 417.95117,399.15625 C 393.10476,396.6763 368.17094,395.09435 343.20703,394.50391 C 290.90986999999996,393.26697 238.56288999999998,396.39514 186.75390999999996,403.44727 C 187.11548999999997,397.26718 187.47531999999995,391.10969 187.82811999999996,384.91992 C 213.46109999999996,381.74024 239.06501999999995,378.32244 264.59374999999994,374.39062 C 315.64714999999995,366.52762 366.45000999999996,357.07298000000003 416.95311999999996,346.22461 L 416.95312,346.22461 M 127.32227,391.7168 C 126.89781,399.00142 126.4787,406.30600999999996 126.04492,413.60742 C 119.5804,414.9 113.14073,416.30912 106.70313,417.73046999999997 C 106.96645,409.70056 107.14129,401.66691999999995 107.25,393.63280999999995 C 113.94255,393.01075 120.63467,392.39000999999996 127.32227,391.7167999999999 L 127.32227,391.7168 M 47.126953,398.52734 C 46.91534,410.05352999999997 46.528116,421.57554 45.982422,433.0918 C 42.761499,434.02042 39.572735,435.05607999999995 36.361328,436.01757999999995 L 35.929687,399.33593999999994 C 39.663925,399.0908299999999 43.3938,398.7883499999999 47.126953,398.5273399999999 L 47.126953,398.52734 M 122.64258,475.67187 C 118.67586,548.92835 115.99264,622.89747 120.61914,697.57227 C 122.10219000000001,721.5096 124.52015,745.37723 127.47070000000001,769.17773 L 43.175781000000015,773.66016 C 74.727755,678.60703 94.832236,579.8149 103.07617,480.01758 C 109.57382000000001,478.45851 116.11249000000001,477.09069 122.64258000000001,475.67187 L 122.64258,475.67187" id="path21229" /></svg:g><svg:metadata id="metadata14"><rdf:RDF><cc:Work rdf:about=""><dc:format>image/svg+xml</dc:format><dc:type rdf:resource="http://purl.org/dc/dcmitype/StillImage" /><dc:title /></cc:Work></rdf:RDF></svg:metadata><sodipodi:namedview pagecolor="#ffffff" bordercolor="#666666" borderopacity="1" objecttolerance="10" gridtolerance="10" guidetolerance="10" inkscape:pageopacity="0" inkscape:pageshadow="2" inkscape:window-width="1920" inkscape:window-height="1009" id="namedview12" showgrid="false" inkscape:zoom="1.2005384" inkscape:cx="203.65863" inkscape:cy="119.94618" inkscape:window-x="0" inkscape:window-y="60" inkscape:window-maximized="1" inkscape:current-layer="svg10" showguides="true" inkscape:guide-bbox="true" inkscape:document-rotation="0" inkscape:pagecheckerboard="0"><sodipodi:guide position="0,1000" orientation="0,1" id="guide16" inkscape:label="" inkscape:locked="true" inkscape:color="rgb(0,0,255)" /><sodipodi:guide position="1763.3122,2036.1693" orientation="1000,0" id="guide18" /><sodipodi:guide position="0,200" orientation="0,1" id="guide20" inkscape:label="base" inkscape:locked="true" inkscape:color="rgb(0,0,255)" /><inkscape:grid type="xygrid" id="grid24" originx="-473.37552" originy="-489.69235" /><sodipodi:guide position="0,0" orientation="0,1" id="guide34" inkscape:label="bottom" inkscape:locked="true" inkscape:color="rgb(0,0,255)" /><sodipodi:guide position="225.05109,1693.3186" orientation="0,1" id="guide44" inkscape:label="" inkscape:locked="false" inkscape:color="rgb(0,0,255)" /><sodipodi:guide position="0,900" orientation="0,1" id="guide46" inkscape:label="" inkscape:locked="true" inkscape:color="rgb(0,0,255)" /><sodipodi:guide position="508.79538,562.89264" orientation="-1,0" id="guide841" inkscape:label="width" inkscape:locked="false" inkscape:color="rgb(0,0,255)" /></sodipodi:namedview>
 <svg:defs id="defs4"><inkscape:path-effect effect="fillet_chamfer" id="path-effect855" is_visible="true" lpeversion="1" satellites_param="F,0,1,1,0,15.716416,0,1 @ F,0,0,1,0,0,0,1 @ F,0,1,1,0,15.716416,0,1 @ F,0,1,1,0,15.716416,0,1 @ F,0,0,1,0,0,0,1 @ F,0,0,1,0,0,0,1 @ F,0,1,1,0,15.716416,0,1 | F,0,0,1,0,23.005876,0,1 @ F,0,0,1,0,23.005876,0,1 @ F,0,0,1,0,0,0,1 @ F,0,0,1,0,0,0,1 @ F,0,1,1,0,15.716416,0,1 @ F,0,1,1,0,15.716416,0,1 @ F,0,0,1,0,0,0,1 | F,0,0,1,0,0,0,1 @ F,0,1,1,0,15.716416,0,1 @ F,0,1,1,0,15.716416,0,1 @ F,0,0,1,0,0,0,1 @ F,0,1,1,0,15.716416,0,1 @ F,0,1,1,0,15.716416,0,1" unit="px" method="auto" mode="F" radius="0" chamfer_steps="1" flexible="false" use_knot_distance="true" apply_no_radius="true" apply_with_radius="true" only_selected="true" hide_knots="false" /><inkscape:path-effect effect="spiro" id="path-effect852" is_visible="true" lpeversion="1" /><inkscape:path-effect effect="fillet_chamfer" id="path-effect861" is_visible="true" lpeversion="1" satellites_param="F,0,0,1,0,0,0,1 @ F,0,0,1,0,0,0,1 @ F,0,0,1,0,0,0,1 @ F,0,0,1,0,0,0,1 @ F,0,0,1,0,0,0,1 @ F,0,0,1,0,33.552446,0,1 @ F,0,0,1,0,22.14471,0,1 @ F,0,0,1,0,0,0,1 @ F,0,0,1,0,0,0,1 @ F,0,0,1,0,0,0,1 @ F,0,0,1,0,0,0,1 @ F,0,0,1,0,0,0,1 @ F,0,0,1,0,0,0,1 @ F,0,0,1,0,0,0,1 @ F,0,0,1,0,0,0,1 @ F,0,0,1,0,31.662035,0,1 @ F,0,0,1,0,23.414228,0,1 @ F,0,0,1,0,0,0,1 @ F,0,0,1,0,0,0,1 @ F,0,0,1,0,0,0,1 @ F,0,0,1,0,0,0,1 @ F,0,0,1,0,0,0,1 @ F,0,0,1,0,0,0,1 @ F,0,0,1,0,52.833278,0,1 @ F,0,0,1,0,27.971235,0,1 @ F,0,0,1,0,0,0,1 @ F,0,0,1,0,0,0,1 @ F,0,0,1,0,0,0,1 @ F,0,0,1,0,0,0,1 @ F,0,0,1,0,0,0,1 @ F,0,0,1,0,0,0,1 @ F,0,0,1,0,0,0,1" unit="px" method="auto" mode="F" radius="0" chamfer_steps="1" flexible="false" use_knot_distance="true" apply_no_radius="true" apply_with_radius="true" only_selected="true" hide_knots="false" /><inkscape:path-effect effect="fillet_chamfer" id="path-effect848" is_visible="true" lpeversion="1" satellites_param="F,0,0,1,0,28.876315,0,1 @ F,0,0,1,0,26.963899,0,1 @ F,0,0,1,0,34.130506,0,1 @ F,0,0,1,0,0,0,1 @ F,0,0,1,0,0,0,1 @ F,0,0,1,0,0,0,1 @ F,0,0,1,0,0,0,1 @ F,0,0,1,0,0,0,1 @ F,0,0,1,0,28.793855,0,1 @ F,0,0,1,0,28.697419,0,1 @ F,0,0,1,0,0,0,1 @ F,0,0,1,0,0,0,1 @ F,0,0,1,0,0,0,1 @ F,0,0,1,0,0,0,1 @ F,0,0,1,0,0,0,1 @ F,0,0,1,0,35.993863,0,1 @ F,0,0,1,0,31.679711,0,1 @ F,0,0,1,0,28.447385,0,1 @ F,0,0,1,0,0,0,1" unit="px" method="auto" mode="F" radius="0" chamfer_steps="1" flexible="false" use_knot_distance="true" apply_no_radius="true" apply_with_radius="true" only_selected="true" hide_knots="false" /><inkscape:path-effect effect="spiro" id="path-effect849" is_visible="true" lpeversion="1" /><inkscape:path-effect effect="spiro" id="path-effect851" is_visible="true" lpeversion="1" />
  <svg:style type="text/css" id="style2">
   
    .fil0 {fill:#EF7F1A;fill-rule:nonzero}
   
  </svg:style>
 <inkscape:path-effect effect="spiro" id="path-effect1214" is_visible="true" lpeversion="1" /><inkscape:path-effect effect="spiro" id="path-effect1195" is_visible="true" lpeversion="1" /><inkscape:path-effect effect="spiro" id="path-effect992" is_visible="true" lpeversion="1" /><inkscape:path-effect effect="spiro" id="path-effect1060" is_visible="true" lpeversion="1" /><inkscape:path-effect effect="spiro" id="path-effect1047" is_visible="true" lpeversion="1" /><inkscape:path-effect effect="spiro" id="path-effect1085" is_visible="true" lpeversion="1" /><inkscape:path-effect effect="spiro" id="path-effect1286" is_visible="true" lpeversion="1" /></svg:defs>
 
</svg:svg>

<svg:svg xmlns:cc="http://creativecommons.org/ns#" xmlns:dc="http://purl.org/dc/elements/1.1/" xmlns:inkscape="http://www.inkscape.org/namespaces/inkscape" xmlns:rdf="http://www.w3.org/1999/02/22-rdf-syntax-ns#" xmlns:sodipodi="http://sodipodi.sourceforge.net/DTD/sodipodi-0.dtd" xmlns:svg="http://www.w3.org/2000/svg" xml:space="preserve" width="1000" height="1000" version="1.1" style="clip-rule:evenodd;fill-rule:evenodd;image-rendering:optimizeQuality;shape-rendering:geometricPrecision;text-rendering:geometricPrecision" viewBox="0 0 1000 1000" id="svg10" sodipodi:docname="F.svg" inkscape:version="1.1.1 (3bf5ae0d25, 2021-09-20)"><svg:text text-anchor="middle" x="267.90649" y="0.98539943" id="top" inkscape:label="top" style="clip-rule:evenodd;fill-rule:evenodd;image-rendering:optimizeQuality;shape-rendering:geometricPrecision;text-rendering:geometricPrecision">✛</svg:text><svg:g id="path850"><svg:path style="color:#000000;clip-rule:nonzero;fill:#1a5fb4;fill-rule:nonzero;stroke-linecap:round;stroke-linejoin:round;-inkscape-stroke:none;shape-rendering:auto" d="m 396.04102,-34.794922 c -33.1766,0.228797 -66.34256,1.869143 -99.38282,4.921875 C 195.70835,-20.545852 96.032162,1.9953933 0.88867188,36.988281 -22.545104,45.607004 -34.662894,68.001355 -29.640625,92.164062 l 19.636719,94.472658 c 2.3120124,11.12335 10.57771334,25.09151 25.4375,30.14844 7.401066,2.51865 14.690325,2.3655 21.216797,0.71679 5.380573,40.10343 8.71981,80.47014 10.021484,120.90625 -9.067672,0.64721 -18.127196,1.41565 -27.201172,1.9668 -24.7189387,1.5014 -43.977149,22.03887 -43.685547,46.91602 l 0.869141,74.16992 c 0.140974,12.02675 5.879026,25.77847 17.1601561,33.75781 11.28113,7.97934 25.9203749,8.81143 37.2519529,5.10156 3.381369,-1.10703 6.818749,-2.03572 10.212891,-3.10351 -9.803889,96.76539 -31.3422705,192.36717 -64.126953,283.90625 -3.944628,11.0139 -3.811302,26.31219 4.902344,38.125 8.7136448,11.8128 23.4787643,16.50018 35.232421,15.875 l 130.070311,-6.91797 c 24.77794,-1.31796 44.92792,-26.11433 41.55078,-50.4668 -3.86062,-27.83885 -6.66443,-55.82391 -8.40234,-83.875 -4.6801,-75.53998 -1.52377,-152.11301 2.81055,-229.46484 52.42466,-7.80303 105.50961,-11.16475 158.4707,-9.91211 29.29957,0.69299 58.56861,2.77582 87.67187,6.23828 24.27226,2.88773 49.29951,-19.38983 48.83399,-44.08399 l -1.74219,-92.41406 c -0.23132,-12.27068 -6.00206,-25.16148 -16.20117,-33.14453 -10.19912,-7.98305 -24.01744,-10.47786 -35.95313,-7.81445 -55.93711,12.48212 -112.2907,23.09809 -168.93554,31.82226 -21.46229,3.30552 -42.97443,6.27933 -64.51367,9.04102 2.85333,-59.99464 4.87912,-120.02775 5.98046,-180.08008 63.18617,-12.60517 131.33195,-10.69166 197.62696,-0.36523 25.07159,3.90527 49.97893,8.87237 74.63086,14.88476 23.79061,5.80233 50.93463,-12.46942 54.11523,-37.02343 L 536.52734,19.439453 c 3.19666,-24.6779061 -15.9988,-48.720664 -41.04492,-50.685547 -33.07828,-2.595011 -66.26481,-3.777625 -99.4414,-3.548828 z m 0.41406,59.998047 C 422.64791,25.02249 448.84402,25.825632 474.98242,27.5 l -8.92969,68.935547 c -20.63181,-4.628541 -41.37021,-8.780689 -62.26367,-12.035156 -66.91922,-10.42366 -137.65991,-13.536383 -206,-1.769532 0.004,-0.460317 0.0158,-0.920541 0.0195,-1.380859 0.10554,-12.928364 -4.82648,-24.764182 -12.68945,-34.080078 38.6883,-7.806011 77.76728,-13.66658 117.05859,-17.296875 31.33817,-2.895469 62.80289,-4.452864 94.27735,-4.669922 z M 73.65625,88 h 64.05273 c -0.0291,3.112821 -0.097,6.225118 -0.13086,9.337891 C 118.26338,103.54712 99.330801,111.26219 80.892578,120.57617 78.628256,109.68423 76.208883,98.828584 73.65625,88 Z m 62.91992,73.3125 c -1.20888,56.63466 -3.26438,113.24899 -6.04687,169.82812 -7.9841,0.83271 -15.98113,1.531 -23.97266,2.28907 -1.74895,-50.52904 -6.49135,-100.94499 -14.294921,-150.89258 3.568151,-2.06789 7.153835,-4.10711 10.800781,-6.0293 10.86421,-5.72618 22.05596,-10.76617 33.51367,-15.19531 z m 280.37695,184.91211 0.99805,52.93164 c -24.84641,-2.47995 -49.78023,-4.0619 -74.74414,-4.65234 -52.29716,-1.23694 -104.64414,1.89123 -156.45312,8.94336 0.36158,-6.18009 0.72141,-12.33758 1.07421,-18.52735 25.63298,-3.17968 51.2369,-6.59748 76.76563,-10.5293 51.0534,-7.863 101.85626,-17.31764 152.35937,-28.16601 z M 127.32227,391.7168 c -0.42446,7.28462 -0.84357,14.58921 -1.27735,21.89062 -6.46452,1.29258 -12.90419,2.7017 -19.34179,4.12305 0.26332,-8.02991 0.43816,-16.06355 0.54687,-24.09766 6.69255,-0.62206 13.38467,-1.2428 20.07227,-1.91601 z m -80.195317,6.81054 c -0.211613,11.52619 -0.598837,23.0482 -1.144531,34.56446 -3.220923,0.92862 -6.409687,1.96428 -9.621094,2.92578 l -0.431641,-36.68164 c 3.734238,-0.24511 7.464113,-0.54759 11.197266,-0.8086 z m 75.515627,77.14453 c -3.96672,73.25648 -6.64994,147.2256 -2.02344,221.9004 1.48305,23.93733 3.90101,47.80496 6.85156,71.60546 l -84.294919,4.48243 C 74.727755,678.60703 94.832236,579.8149 103.07617,480.01758 c 6.49765,-1.55907 13.03632,-2.92689 19.56641,-4.34571 z" id="path21177" /></svg:g><svg:metadata id="metadata14"><rdf:RDF><cc:Work rdf:about=""><dc:format>image/svg+xml</dc:format><dc:type rdf:resource="http://purl.org/dc/dcmitype/StillImage" /><dc:title /></cc:Work></rdf:RDF></svg:metadata><sodipodi:namedview pagecolor="#ffffff" bordercolor="#666666" borderopacity="1" objecttolerance="10" gridtolerance="10" guidetolerance="10" inkscape:pageopacity="0" inkscape:pageshadow="2" inkscape:window-width="1920" inkscape:window-height="1009" id="namedview12" showgrid="false" inkscape:zoom="1.2005384" inkscape:cx="203.65863" inkscape:cy="119.94618" inkscape:window-x="0" inkscape:window-y="60" inkscape:window-maximized="1" inkscape:current-layer="svg10" showguides="true" inkscape:guide-bbox="true" inkscape:document-rotation="0" inkscape:pagecheckerboard="0"><sodipodi:guide position="0,1000" orientation="0,1" id="guide16" inkscape:label="" inkscape:locked="true" inkscape:color="rgb(0,0,255)" /><sodipodi:guide position="1763.3122,2036.1693" orientation="1000,0" id="guide18" /><sodipodi:guide position="0,200" orientation="0,1" id="guide20" inkscape:label="base" inkscape:locked="true" inkscape:color="rgb(0,0,255)" /><inkscape:grid type="xygrid" id="grid24" originx="-473.37552" originy="-489.69235" /><sodipodi:guide position="0,0" orientation="0,1" id="guide34" inkscape:label="bottom" inkscape:locked="true" inkscape:color="rgb(0,0,255)" /><sodipodi:guide position="225.05109,1693.3186" orientation="0,1" id="guide44" inkscape:label="" inkscape:locked="false" inkscape:color="rgb(0,0,255)" /><sodipodi:guide position="0,900" orientation="0,1" id="guide46" inkscape:label="" inkscape:locked="true" inkscape:color="rgb(0,0,255)" /><sodipodi:guide position="508.79538,562.89264" orientation="-1,0" id="guide841" inkscape:label="width" inkscape:locked="false" inkscape:color="rgb(0,0,255)" /></sodipodi:namedview>
 <svg:defs id="defs4"><inkscape:path-effect effect="fillet_chamfer" id="path-effect855" is_visible="true" lpeversion="1" satellites_param="F,0,1,1,0,15.716416,0,1 @ F,0,0,1,0,0,0,1 @ F,0,1,1,0,15.716416,0,1 @ F,0,1,1,0,15.716416,0,1 @ F,0,0,1,0,0,0,1 @ F,0,0,1,0,0,0,1 @ F,0,1,1,0,15.716416,0,1 | F,0,0,1,0,23.005876,0,1 @ F,0,0,1,0,23.005876,0,1 @ F,0,0,1,0,0,0,1 @ F,0,0,1,0,0,0,1 @ F,0,1,1,0,15.716416,0,1 @ F,0,1,1,0,15.716416,0,1 @ F,0,0,1,0,0,0,1 | F,0,0,1,0,0,0,1 @ F,0,1,1,0,15.716416,0,1 @ F,0,1,1,0,15.716416,0,1 @ F,0,0,1,0,0,0,1 @ F,0,1,1,0,15.716416,0,1 @ F,0,1,1,0,15.716416,0,1" unit="px" method="auto" mode="F" radius="0" chamfer_steps="1" flexible="false" use_knot_distance="true" apply_no_radius="true" apply_with_radius="true" only_selected="true" hide_knots="false" /><inkscape:path-effect effect="spiro" id="path-effect852" is_visible="true" lpeversion="1" /><inkscape:path-effect effect="fillet_chamfer" id="path-effect861" is_visible="true" lpeversion="1" satellites_param="F,0,0,1,0,0,0,1 @ F,0,0,1,0,0,0,1 @ F,0,0,1,0,0,0,1 @ F,0,0,1,0,0,0,1 @ F,0,0,1,0,0,0,1 @ F,0,0,1,0,33.552446,0,1 @ F,0,0,1,0,22.14471,0,1 @ F,0,0,1,0,0,0,1 @ F,0,0,1,0,0,0,1 @ F,0,0,1,0,0,0,1 @ F,0,0,1,0,0,0,1 @ F,0,0,1,0,0,0,1 @ F,0,0,1,0,0,0,1 @ F,0,0,1,0,0,0,1 @ F,0,0,1,0,0,0,1 @ F,0,0,1,0,31.662035,0,1 @ F,0,0,1,0,23.414228,0,1 @ F,0,0,1,0,0,0,1 @ F,0,0,1,0,0,0,1 @ F,0,0,1,0,0,0,1 @ F,0,0,1,0,0,0,1 @ F,0,0,1,0,0,0,1 @ F,0,0,1,0,0,0,1 @ F,0,0,1,0,52.833278,0,1 @ F,0,0,1,0,27.971235,0,1 @ F,0,0,1,0,0,0,1 @ F,0,0,1,0,0,0,1 @ F,0,0,1,0,0,0,1 @ F,0,0,1,0,0,0,1 @ F,0,0,1,0,0,0,1 @ F,0,0,1,0,0,0,1 @ F,0,0,1,0,0,0,1" unit="px" method="auto" mode="F" radius="0" chamfer_steps="1" flexible="false" use_knot_distance="true" apply_no_radius="true" apply_with_radius="true" only_selected="true" hide_knots="false" /><inkscape:path-effect effect="fillet_chamfer" id="path-effect848" is_visible="true" lpeversion="1" satellites_param="F,0,0,1,0,28.876315,0,1 @ F,0,0,1,0,26.963899,0,1 @ F,0,0,1,0,34.130506,0,1 @ F,0,0,1,0,0,0,1 @ F,0,0,1,0,0,0,1 @ F,0,0,1,0,0,0,1 @ F,0,0,1,0,0,0,1 @ F,0,0,1,0,0,0,1 @ F,0,0,1,0,28.793855,0,1 @ F,0,0,1,0,28.697419,0,1 @ F,0,0,1,0,0,0,1 @ F,0,0,1,0,0,0,1 @ F,0,0,1,0,0,0,1 @ F,0,0,1,0,0,0,1 @ F,0,0,1,0,0,0,1 @ F,0,0,1,0,35.993863,0,1 @ F,0,0,1,0,31.679711,0,1 @ F,0,0,1,0,28.447385,0,1 @ F,0,0,1,0,0,0,1" unit="px" method="auto" mode="F" radius="0" chamfer_steps="1" flexible="false" use_knot_distance="true" apply_no_radius="true" apply_with_radius="true" only_selected="true" hide_knots="false" /><inkscape:path-effect effect="spiro" id="path-effect849" is_visible="true" lpeversion="1" /><inkscape:path-effect effect="spiro" id="path-effect851" is_visible="true" lpeversion="1" />
  <svg:style type="text/css" id="style2">
   
    .fil0 {fill:#EF7F1A;fill-rule:nonzero}
   
  </svg:style>
 <inkscape:path-effect effect="spiro" id="path-effect1214" is_visible="true" lpeversion="1" /><inkscape:path-effect effect="spiro" id="path-effect1195" is_visible="true" lpeversion="1" /><inkscape:path-effect effect="spiro" id="path-effect992" is_visible="true" lpeversion="1" /><inkscape:path-effect effect="spiro" id="path-effect1060" is_visible="true" lpeversion="1" /><inkscape:path-effect effect="spiro" id="path-effect1047" is_visible="true" lpeversion="1" /><inkscape:path-effect effect="spiro" id="path-effect1085" is_visible="true" lpeversion="1" /><inkscape:path-effect effect="spiro" id="path-effect1286" is_visible="true" lpeversion="1" /></svg:defs>
 
</svg:svg>
